X: 27
T:Tarbolton Lodge, The
T:Cooleen Bridge
M:C|
L:1/8
R:Reel
K:EDor
A[|:Beed e2BA|GBAF GFEF|Dddc d2AF|GBAG FDDF|!
Eeed efga|fedf eBBA|G2BG FGA=c|1BGAF GEEA:|2BGAF GEEf|!
|:gfef gebe|gebe gfec|defg a2fd|gefd edBA|!
G2BG F2AF|E2ef gfed|BcdB A2GA|1BGAF GEEf:|2BGAF GEEA|]!
